icon-themes/breeze_svg/cmd/sc_zoompage.svg

<svg xmlns="http://www.w3.org/2000/svg" viewBox="0 0 16 16">
     />
 <path 
     style="fill:#4d4d4d" 
     d="M 2 2 L 2 5 L 3 5 L 3 3 L 5 3 L 5 2 L 3 2 L 2 2 z M 8 2 L 6 4 L 10 4 L 8 2 z M 11 2 L 11 3 L 13 3 L 13 5 L 14 5 L 14 2 L 13 2 L 11 2 z M 5.5 5 L 5.5 11 L 8.5 11 L 10.5 9 L 10.5 8 L 10.5 5 L 5.5 5 z M 4 6 L 2 8 L 4 10 L 4 6 z M 6.5 6 L 9.5 6 L 9.5 9 L 8.5 9 L 8.5 10 L 6.5 10 L 6.5 6 z M 12 6 L 12 10 L 14 8 L 12 6 z M 2 11 L 2 14 L 3 14 L 5 14 L 5 13 L 3 13 L 3 11 L 2 11 z M 13 11 L 13 13 L 11 13 L 11 14 L 14 14 L 14 13 L 14 11 L 13 11 z M 6 12 L 8 14 L 10 12 L 6 12 z "
     />
 </svg>

<svg viewBox="0 0 16 16" xmlns="http://www.w3.org/2000/svg">/&gt;<path d="m2 2v3h1v-2h2v-1h-2zm6 0-2 2h4zm3 0v1h2v2h1v-3h-1zm-5.5 3v6h3l2-2v-1-3zm-1.5 1-2 2 2 2zm2.5 0h3v3h-1v1h-2zm5.5 0v4l2-2zm-10 5v3h1 2v-1h-2v-2zm11 0v2h-2v1h3v-1-2zm-7 1 2 2 2-2z" fill="#4d4d4d"/></svg>
